X:1
T:Title
%%score { ( 1 3 5 ) | ( 2 4 ) }
L:1/8
Q:1/4=106
M:4/4
K:A
V:1 treble nm="Grand Piano"
V:3 treble 
V:5 treble 
V:2 bass 
V:4 bass 
V:1
 [CE]4 [CF]2 [CG]2 | [EA]4 [EB]4 | [DA]2 [DG]2 [DB]2 [DF]2 | [CF]4 [CE]4 | [CA]4 [GA]2 [FA]2 | %5
w: U.~C.~Burnap * *|||||
 z4 [Ec]4 | [^Dc]2 [DF]2 [DG]2 [DA]2 | B8 | [Cc]4 z4 | [CE]4 [EA]4 | [C^EA]2 [B,EG]2 [Ec]2 [EG]2 | %11
w: ||||||
 B4 A4 | A4 G2 F2 | E4 c4 | z4 B4 | [CA]8 |] %16
w: |||||
V:2
 [A,,E,]4 [A,,E,]2 [A,,E,]2 | [C,E,]4 [C,E,]4 | [B,,E,]2 [B,,E,]2 [B,,F,]2 [B,,G,]2 | %3
 [A,,A,]4 [A,,A,]4 | [F,A,]4 [E,A,]2 [D,A,]2 | [C,A,]4 A,2 z2 | %6
 [B,,F,]2 [B,,F,]2 [B,,B,]2 [B,,A,]2 | D2 z2 z4 | A,2 z2 z4 | z4 E,2 z2 | C,2 C,2 [C,G,]2 [C,B,]2 | %11
 [F,D^E]4 [F,CF]4 | [^D,F,=C]4 [D,G,C]2 [D,A,C]2 | [E,A,C]4 [E,A,E]4 | %14
 [F,A,D]2 [F,A,D]2 [^E,A,D]2 [=E,G,]2 | [A,,A,]8 |] %16
V:3
 x8 | x8 | x8 | x8 | x8 | [EA]4 z2 G,2 | x8 | z2 F2 E2 D2 | z2 E,2 [DA]2 [=CF]2 | x8 | x8 | x8 | %12
 x8 | x8 | c2 F2 z2 z A | x8 |] %16
V:4
 x8 | x8 | x8 | x8 | x8 | z4 A,,4 | x8 | [E,G,]8 | A,,4 [A,,F,]2 [A,,^D,]2 | %9
 [A,,E,]4 C,2- [C,A,]2 | x8 | x8 | x8 | x8 | x8 | x8 |] %16
V:5
 x8 | x8 | x8 | x8 | x8 | x8 | x8 | x8 | x8 | x8 | x8 | x8 | x8 | x8 | z4 z2 D2 | x8 |] %16

